!!! OTL: Berkowitz79
!!! Chapter: 1
!!! Section: I
!!! Page: 20
!!! Mode: 
!!! Encoder: DJB
**kern
*staff1
*I"Piano
=1-
*clefC3
*k[b-]
*d:
*M6/8
8d\L
8f\
8g\J
4a\
8a\
=2
8b-\L
8a\
8g\J
4.a\
=3
8dd\L
8cc\
8b-\J
8a\L
8g\
8f\J
=4
4e\
8f\
4.e\
=5
8d\L
8f\
8g\J
4a\
8a\
=6
8b-\L
8a\
8g\J
4a\
8d\
=7
8dd\L
8b-\
8b-\J
8a\L
8g\
8f\J
=8
!!linebreak:original
4e\
8f\
4.d\
==
*-
